X: 74
M:2/4
L:1/16
K:D
|]"^Segno"vdBAF D2EF|GFGA BEEc|dBAF D2EF|GBAF D2D2|
dBAF D2EF|GFGA BEEc|dBAF D2EF|GBAG FABc|]
dcde f2ed|cdef gBBc|dfga b2ag|faeg fddc|
dcde fded|cdef gfga|bBbB b2ag|faeg fdd2H|]


